src/components/Careers/Benefits/images/training-budget.svg

<svg xmlns="http://www.w3.org/2000/svg" width="89" height="91" fill="none" viewBox="0 0 89 91"><rect width="35.438" height="9.42" x="9.866" y="46.46" fill="#FF8A00" fill-opacity=".6" rx="2.243" transform="rotate(-33.4671 9.86633 46.4604)"/><rect width="34.313" height="8.295" x="10.646" y="46.62" stroke="#FF8A00" stroke-opacity=".4" stroke-width="1.125" rx="1.68" transform="rotate(-33.4671 10.6458 46.6195)"/><path fill="#FF8A00" fill-opacity=".4" d="M22.6297 17.0677L11.0874 45.6011C10.8802 46.1132 11.4582 46.5859 11.919 46.2813L38.6349 28.6205C38.74 28.551 38.8187 28.4482 38.8585 28.3286L47.756 1.54356C47.9244 1.0366 47.3576 0.602409 46.912 0.896996L22.841 16.8094C22.746 16.8722 22.6724 16.9622 22.6297 17.0677Z"/><path stroke="#FF8A00" stroke-opacity=".4" stroke-width="1.125" d="M11.6088 45.8121L23.1512 17.2787L47.2222 1.36623L38.3247 28.1513L11.6088 45.8121Z"/><path fill="#FF8A00" fill-opacity=".4" d="M52.3005 8.13905L47.7956 1.32432L38.8806 27.1094L43.8438 34.6172L52.4282 9.11839C52.5389 8.7897 52.4918 8.42836 52.3005 8.13905Z"/><path stroke="#FF8A00" stroke-opacity=".4" stroke-width="1.125" d="M39.503 27.0308L47.9548 2.58521L51.8313 8.44924C51.9269 8.5939 51.9505 8.77457 51.8951 8.93891L43.678 33.3465L39.503 27.0308Z"/><rect width="35.438" height="9.42" x="29.307" y="56.795" fill="#FF8A00" fill-opacity=".6" rx="2.243" transform="rotate(26.039 29.307 56.7954)"/><rect width="34.313" height="8.295" x="29.566" y="57.548" stroke="#FF8A00" stroke-opacity=".4" stroke-width="1.125" rx="1.68" transform="rotate(26.039 29.5655 57.5477)"/><path fill="#FF8A00" fill-opacity=".4" d="M61.1109 52.8783L30.667 57.4116C30.1206 57.4929 30.0066 58.2309 30.5029 58.4733L59.2778 72.5321C59.391 72.5874 59.5196 72.6031 59.6428 72.5766L87.238 66.6516C87.7603 66.5394 87.8468 65.8307 87.3669 65.5962L61.4406 52.9293C61.3384 52.8793 61.2234 52.8615 61.1109 52.8783Z"/><path stroke="#FF8A00" stroke-opacity=".4" stroke-width="1.125" d="M30.7498 57.9679L61.1937 53.4347L87.1199 66.1016L59.5247 72.0267L30.7498 57.9679Z"/><path fill="#FF8A00" fill-opacity=".4" d="M83.8609 73.9143L87.447 66.5744L60.7046 71.977L56.7538 80.0635L83.0819 74.5213C83.4212 74.4499 83.7087 74.2259 83.8609 73.9143Z"/><path stroke="#FF8A00" stroke-opacity=".4" stroke-width="1.125" d="M61.0882 72.4734L86.4414 67.3514L83.3555 73.6674C83.2794 73.8232 83.1357 73.9352 82.966 73.9709L57.7646 79.2759L61.0882 72.4734Z"/><path stroke="#FF8A00" stroke-linecap="round" stroke-opacity=".4" d="M25.1718 22.5L38.1718 14"/><path stroke="#FF8A00" stroke-linecap="round" stroke-opacity=".4" d="M59.1718 58.4758L73.2433 65.0518"/><path stroke="#FF8A00" stroke-linecap="round" stroke-opacity=".4" d="M27.6718 24L34.6718 19.5"/><path stroke="#FF8A00" stroke-linecap="round" stroke-opacity=".4" d="M59.213 61.391L66.7245 64.9724"/></svg>

<svg fill="none" viewBox="0 0 89 91"><rect width="35.438" height="9.42" x="9.866" y="46.46" fill="#FF8A00" fill-opacity=".6" rx="2.243" transform="rotate(-33.467 9.866 46.46)"/><rect width="34.313" height="8.295" x="10.646" y="46.62" stroke="#FF8A00" stroke-opacity=".4" stroke-width="1.125" rx="1.68" transform="rotate(-33.467 10.646 46.62)"/><path fill="#FF8A00" fill-opacity=".4" d="M22.63 17.068L11.087 45.6c-.207.512.371.985.832.68l26.716-17.66a.563.563 0 00.224-.292l8.897-26.785a.562.562 0 00-.844-.647L22.841 16.809a.562.562 0 00-.211.259z"/><path stroke="#FF8A00" stroke-opacity=".4" stroke-width="1.125" d="M11.609 45.812L23.15 17.28 47.222 1.366l-8.897 26.785-26.716 17.661z"/><path fill="#FF8A00" fill-opacity=".4" d="M52.3 8.139l-4.504-6.815L38.88 27.11l4.963 7.508 8.584-25.499c.11-.328.064-.69-.127-.979z"/><path stroke="#FF8A00" stroke-opacity=".4" stroke-width="1.125" d="M39.503 27.03l8.452-24.445L51.83 8.45a.56.56 0 01.064.49l-8.217 24.407-4.175-6.315z"/><rect width="35.438" height="9.42" x="29.307" y="56.795" fill="#FF8A00" fill-opacity=".6" rx="2.243" transform="rotate(26.039 29.307 56.795)"/><rect width="34.313" height="8.295" x="29.566" y="57.548" stroke="#FF8A00" stroke-opacity=".4" stroke-width="1.125" rx="1.68" transform="rotate(26.039 29.566 57.548)"/><path fill="#FF8A00" fill-opacity=".4" d="M61.11 52.878l-30.443 4.534c-.546.08-.66.819-.164 1.061l28.775 14.06a.562.562 0 00.365.044l27.595-5.925a.563.563 0 00.129-1.056L61.44 52.93a.562.562 0 00-.33-.05z"/><path stroke="#FF8A00" stroke-opacity=".4" stroke-width="1.125" d="M30.75 57.968l30.444-4.533L87.12 66.102l-27.595 5.925-28.775-14.06z"/><path fill="#FF8A00" fill-opacity=".4" d="M83.86 73.914l3.587-7.34-26.742 5.403-3.951 8.087 26.328-5.543a1.12 1.12 0 00.779-.607z"/><path stroke="#FF8A00" stroke-opacity=".4" stroke-width="1.125" d="M61.088 72.473l25.353-5.122-3.085 6.316a.562.562 0 01-.39.304l-25.201 5.305 3.323-6.803z"/><path stroke="#FF8A00" stroke-linecap="round" stroke-opacity=".4" d="M25.172 22.5l13-8.5m21 44.476l14.071 6.576M27.672 24l7-4.5m24.541 41.891l7.512 3.581"/></svg>
